X:650
T: Shiyue huarkai
N: C2174
O: China, Hunan Qiyang
S: I, 495]
R: Xiaodiao, Huarkai]
M: 2/4
L: 1/16
K: A
efecB4 | efecB4 | e2cBe2cB | ABcBA4 |
e2FAB2BA | FEFAE4 |
c2cABcBAB4 | E2FAB2BA | FEFAE4

